icons/google-plus.svg

<svg xmlns="http://www.w3.org/2000/svg" viewBox="0 0 51.26 51.26">
  <path fill="#FFFFFF" d="M25.63 6.28a19 19 0 0 0-19 19 19 19 0 1 0 38.06 0 19 19 0 0 0-19.06-19Zm-5.16 27.3a8.27 8.27 0 1 1 5.8-14.16l-1.7 1.47a6 6 0 1 0-4.1 10.45 5.08 5.08 0 0 0 5-4.32h-5.14v-2.21H28v.86c0 4.56-3.15 7.91-7.53 7.91Zm18.59-6.65h-3.18v3.17h-2v-3.17h-3.19v-2h3.17v-3.2h2v3.18h3.18Z"/>
</svg>

<svg xmlns="http://www.w3.org/2000/svg" viewBox="0 0 51.26 51.26"><defs><style>.cls-1{fill:#fff;}</style></defs><g id="Layer_2" data-name="Layer 2"><path class="cls-1" d="M25.63,6.28a19,19,0,0,0-19,19h0a19,19,0,1,0,38.06,0h0A19,19,0,0,0,25.63,6.28Zm-5.16,27.3a8.27,8.27,0,1,1,5.8-14.16l-1.7,1.47a6,6,0,1,0-4.1,10.45,5.08,5.08,0,0,0,5-4.32H20.33V24.81H28v.86C28,30.23,24.85,33.58,20.47,33.58Zm18.59-6.65H35.88V30.1h-2V26.93H30.69v-2h3.17V21.73h2v3.18h3.18Z"/></g></svg>
